X: 1
T:Schottische d'Arce
M:4/4
L:1/8
C:Dave Praties
R:Schottische
Z:Steve Mansfield
K:Cm
gf|: e2c2 cdec |d2c2 c4 | e3f g3a | gagf g2gf | e2c2 cdec |
d2c2 c4 | cdec B2GB |1 c6 gf :|2 c4-c4 |: g2c2 g2c2 | gf^ed c2de |
f2B2 f2B2 | f^edc B4 | g2c2 g2c2 | gf^ed c2de | f2d2 B2d2 | c4-c4 :|
% Orchesography.abc
%
% Steve Mansfield March 2001
% steveATlesessionDOTcoDOTuk
%
% A transcription of the music in the 
% Renaissance dance tutor Orchesography, by Thoinot 
% Arbeau, first published in 1589 in Langres.
% 
% This file is to be regarded as a 'playing edition' rather
% than as a scholarly transcription: I would however
% welcome notification of any typing errors to the above email 
% address.
%
% This transcription is based on two editions of the 
% Orchesography, one paper and one virtual. 
% The paper edition is Mary Stewart Evans' translation 
% published by Dover Books 1948 / 1967.
% The Orchesography is also available online in the 
% original French at the wonderful Library of Congress
% 'American Memory' digitisation project - at the time of
% publishing this file the URL for the first page of the 
% Orchesography facsimile is 
% http://memory.loc.gov/cgi-bin/ampage?collId=musdi&fileName=219/musdi219.db&recNum=0&itemLink=r?ammem/musdibib:@OR(@field(AUTHOR+@band(Arbeau,+Thoinot,+1519-1595.+))+@field(OTHER+@band(Arbeau,+Thoinot,+1519-1595.+)))&linkText=0
%
<end>
<start>
